client/img/icon/solid/heart.svg

<?xml version="1.0" encoding="UTF-8"?>
<svg width="32px" height="32px" viewBox="0 0 32 32" version="1.1" xmlns="http://www.w3.org/2000/svg" xmlns:xlink="http://www.w3.org/1999/xlink">
    <!-- Generator: sketchtool 47 (45396) - http://www.bohemiancoding.com/sketch -->
    <title>icon/solid/heart</title>
    <desc>Created with sketchtool.</desc>
    <defs>
        <path d="M20.0239465,7.01144793 C21.6218907,7.01144793 23.1237874,7.63263242 24.2531989,8.76204392 C25.3834786,9.89232355 26.0045557,11.399278 25.999979,12.9951124 C25.999979,14.5920567 25.3756834,16.0980644 24.2442483,17.2294971 L17.0639004,24.3831355 C16.777138,24.669898 16.3897534,24.8248518 15.994276,24.8248518 C15.5964827,24.8248518 15.2093924,24.6640604 14.9246515,24.3793196 L7.75824884,17.2129169 C6.62641337,16.0810815 6.0000209,14.5782204 6.000025,12.9865298 C5.99544905,11.3895215 6.61913634,9.88207654 7.75061689,8.75059599 C8.87709309,7.62411979 10.3831737,7 11.9760534,7 C13.4765907,7 14.9012392,7.55462663 16.0061086,8.56082807 C17.1087422,7.56047759 18.5263578,7.01144793 20.0239465,7.01144793 Z M22.8313534,15.8139673 C23.5865373,15.0587834 23.999979,14.0614251 23.9999831,12.9922471 C24.003039,11.9257211 23.5926157,10.9298878 22.8389854,10.1762575 C22.0849134,9.42218555 21.0918341,9.01144793 20.0239465,9.01144793 C18.9576337,9.01144793 17.9602754,9.42488957 17.2050916,10.1800735 L16.0057239,11.3794411 L14.7987243,10.1724415 C14.04243,9.41614724 13.0408011,9 11.9760534,9 C10.9137212,9 9.91631482,9.41332519 9.16483045,10.1648096 C8.40930575,10.9203343 7.99696851,11.9169486 8.0000209,12.9836645 C8.0000209,14.0461922 8.41458371,15.0408247 9.1724624,15.7987034 L15.9968284,22.6230693 L22.8313534,15.8139673 Z M15.652333,22.9662832 C15.7455468,22.8737642 15.8684232,22.8248518 15.994276,22.8248518 C16.1276362,22.8248518 16.2490402,22.8752812 16.338865,22.965106 L15.9968284,22.6230693 L15.652333,22.9662832 Z" id="path-1"></path>
    </defs>
    <g id="Symbols" stroke="none" stroke-width="1" fill="none" fill-rule="evenodd">
        <g id="icon/solid/heart">
            <mask id="mask-2" fill="white">
                <use xlink:href="#path-1"></use>
            </mask>
            <use id="heart" fill="#000000" fill-rule="nonzero" xlink:href="#path-1"></use>
            <g id="color/solid/primary" mask="url(#mask-2)" fill="#4A90E2">
                <g transform="translate(-22.000000, -25.000000)" id="color">
                    <rect x="0" y="0" width="80" height="80"></rect>
                </g>
            </g>
        </g>
    </g>
</svg>

<?xml version="1.0" encoding="utf-8"?>
<!-- Generator: Adobe Illustrator 23.0.0, SVG Export Plug-In . SVG Version: 6.00 Build 0)  -->
<svg version="1.1" id="Layer_1" xmlns="http://www.w3.org/2000/svg" xmlns:xlink="http://www.w3.org/1999/xlink" x="0px" y="0px"
	 viewBox="0 0 32 32" style="enable-background:new 0 0 32 32;" xml:space="preserve">
<g>
	<path d="M20,7c1.6,0,3.1,0.6,4.2,1.8C25.4,9.9,26,11.4,26,13c0,1.6-0.6,3.1-1.8,4.2l-7.2,7.2c-0.3,0.3-0.7,0.4-1.1,0.4
		c-0.4,0-0.8-0.2-1.1-0.4l-7.2-7.2C6.6,16.1,6,14.6,6,13c0-1.6,0.6-3.1,1.8-4.2C8.9,7.6,10.4,7,12,7c1.5,0,2.9,0.6,4,1.6
		C17.1,7.6,18.5,7,20,7z M22.8,15.8c0.8-0.8,1.2-1.8,1.2-2.8c0-1.1-0.4-2.1-1.2-2.8C22.1,9.4,21.1,9,20,9C19,9,18,9.4,17.2,10.2
		L16,11.4l-1.2-1.2C14,9.4,13,9,12,9c-1.1,0-2.1,0.4-2.8,1.2C8.4,10.9,8,11.9,8,13C8,14,8.4,15,9.2,15.8l6.8,6.8L22.8,15.8z
		 M15.7,23c0.1-0.1,0.2-0.1,0.3-0.1c0.1,0,0.3,0.1,0.3,0.1L16,22.6L15.7,23z"/>
</g>
</svg>
